Sources/FrostedUI/Resources/Icons.xcassets/monitorSize16.imageset/monitor-size-16.svg

<svg
  width="16"
  height="16"
  viewBox="0 0 16 16"
  fill="none"
  xmlns="http://www.w3.org/2000/svg"
  data-fui-icon="true"
>
  <path
    d="M3.16668 11.5H12.8333C13.5697 11.5 14.1667 10.9031 14.1667 10.1667V3.83333C14.1667 3.09695 13.5697 2.5 12.8333 2.5H3.16668C2.4303 2.5 1.83334 3.09695 1.83334 3.83333V10.1667C1.83334 10.9031 2.4303 11.5 3.16668 11.5zM1.83334 8.83331H13.375M5 14.2083L11 14.2083M6.13541 11.5V14.2083M9.86456 11.5V14.2083"
    stroke="currentColor"
    stroke-width="1.5"
    stroke-linecap="round"
    stroke-linejoin="round"
  />
</svg>

<svg xmlns="http://www.w3.org/2000/svg" width="16" height="16" fill="none" data-fui-icon="true" viewBox="0 0 16 16"><path stroke="currentColor" stroke-linecap="round" stroke-linejoin="round" stroke-width="1.5" d="M3.167 11.5h9.666c.737 0 1.334-.597 1.334-1.333V3.833c0-.736-.597-1.333-1.334-1.333H3.167c-.737 0-1.334.597-1.334 1.333v6.334c0 .736.597 1.333 1.334 1.333M1.833 8.833h11.542M5 14.208h6M6.135 11.5v2.708m3.73-2.708v2.708"/></svg>
